X: 18141
T: Humours Of Castlelyons, The
R: jig
M: 6/8
K: Gmajor
G2 A BAG|dBG B/c/dB|A2 B cBA|ecA BGE|
G3 BGG|dGG BAG|A3 cBA|BGE E2:|
g2 g gdB|g/a/ba gdB|A2 B cBA|ecA AB/c/d|
[1 gbg gdB|gba gdB|A2 B cBA|BGE E2:|
[2 gba gfa|bg/f/e dB/A/G|A3 c>BA|BGE E2||

